SF_Symbols/shield.slash.svg

<?xml version="1.0" encoding="UTF-8"?>
<svg xmlns="http://www.w3.org/2000/svg" xmlns:xlink="http://www.w3.org/1999/xlink" width="24" height="24" viewBox="0 0 24 24" version="1.1">
<g id="surface1">
<path style=" stroke:none;fill-rule:nonzero;fill:rgb(100%,100%,100%);fill-opacity:1;" d="M 3.539062 13.984375 C 3.539062 14.992188 3.6875 15.867188 3.980469 16.609375 C 4.277344 17.351562 4.75 18.042969 5.40625 18.683594 C 6.058594 19.324219 6.921875 19.984375 7.996094 20.667969 C 9.078125 21.351562 10.402344 22.136719 11.96875 23.019531 C 12.105469 23.09375 12.242188 23.148438 12.375 23.183594 C 12.507812 23.21875 12.617188 23.238281 12.707031 23.238281 C 12.792969 23.238281 12.90625 23.21875 13.035156 23.183594 C 13.167969 23.148438 13.304688 23.09375 13.445312 23.019531 C 14.304688 22.53125 15.089844 22.082031 15.792969 21.660156 C 16.507812 21.25 17.148438 20.855469 17.714844 20.480469 L 16.367188 19.125 C 15.957031 19.398438 15.503906 19.683594 15.011719 19.984375 C 14.519531 20.285156 13.976562 20.617188 13.390625 20.976562 C 13.226562 21.074219 13.09375 21.140625 12.992188 21.175781 C 12.890625 21.21875 12.792969 21.242188 12.707031 21.242188 C 12.617188 21.242188 12.523438 21.21875 12.417969 21.175781 C 12.316406 21.140625 12.183594 21.074219 12.023438 20.976562 C 10.75 20.207031 9.679688 19.542969 8.8125 18.992188 C 7.953125 18.433594 7.265625 17.90625 6.75 17.40625 C 6.234375 16.898438 5.863281 16.34375 5.636719 15.75 C 5.40625 15.15625 5.292969 14.429688 5.292969 13.578125 L 5.292969 8.050781 L 3.539062 6.308594 Z M 20.933594 17.558594 C 21.265625 17.058594 21.503906 16.523438 21.652344 15.949219 C 21.796875 15.367188 21.871094 14.714844 21.871094 13.984375 L 21.871094 5.546875 C 21.871094 4.96875 21.75 4.550781 21.507812 4.300781 C 21.265625 4.050781 20.90625 3.828125 20.4375 3.628906 C 20.179688 3.519531 19.824219 3.378906 19.367188 3.210938 C 18.910156 3.03125 18.40625 2.84375 17.855469 2.648438 C 17.3125 2.441406 16.765625 2.238281 16.214844 2.039062 C 15.660156 1.84375 15.15625 1.660156 14.703125 1.5 C 14.246094 1.339844 13.890625 1.214844 13.632812 1.125 C 13.484375 1.082031 13.332031 1.042969 13.167969 1.015625 C 13.015625 0.976562 12.859375 0.960938 12.707031 0.960938 C 12.550781 0.960938 12.398438 0.976562 12.242188 1.015625 C 12.089844 1.050781 11.9375 1.089844 11.789062 1.125 C 11.453125 1.234375 10.976562 1.398438 10.367188 1.609375 C 9.765625 1.824219 9.113281 2.058594 8.414062 2.316406 C 7.71875 2.574219 7.058594 2.820312 6.441406 3.054688 L 7.820312 4.445312 C 8.203125 4.304688 8.59375 4.160156 9 4.015625 C 9.40625 3.867188 9.804688 3.722656 10.203125 3.585938 C 10.597656 3.4375 10.972656 3.300781 11.328125 3.175781 C 11.679688 3.042969 11.992188 2.929688 12.265625 2.835938 C 12.351562 2.796875 12.433594 2.773438 12.507812 2.757812 C 12.582031 2.742188 12.648438 2.734375 12.707031 2.734375 C 12.765625 2.734375 12.832031 2.742188 12.90625 2.757812 C 12.976562 2.773438 13.058594 2.796875 13.148438 2.835938 C 13.484375 2.953125 13.875 3.09375 14.316406 3.265625 C 14.757812 3.425781 15.21875 3.597656 15.707031 3.78125 C 16.199219 3.960938 16.6875 4.140625 17.171875 4.324219 C 17.664062 4.5 18.132812 4.667969 18.574219 4.832031 C 19.015625 4.992188 19.40625 5.132812 19.753906 5.25 C 19.902344 5.300781 19.996094 5.375 20.039062 5.46875 C 20.09375 5.566406 20.117188 5.707031 20.117188 5.890625 L 20.117188 13.578125 C 20.117188 14.113281 20.074219 14.59375 19.984375 15.023438 C 19.898438 15.441406 19.753906 15.828125 19.554688 16.179688 Z M 21.828125 22.71875 C 21.996094 22.890625 22.199219 22.972656 22.433594 22.972656 C 22.667969 22.972656 22.867188 22.890625 23.03125 22.71875 C 23.199219 22.558594 23.28125 22.359375 23.28125 22.125 C 23.28125 21.890625 23.199219 21.6875 23.03125 21.519531 L 2.4375 0.9375 C 2.269531 0.769531 2.066406 0.683594 1.832031 0.683594 C 1.59375 0.683594 1.394531 0.769531 1.222656 0.9375 C 1.0625 1.09375 0.980469 1.289062 0.980469 1.53125 C 0.980469 1.777344 1.0625 1.976562 1.222656 2.140625 Z M 21.828125 22.71875 "/>
</g>
</svg>

<svg xmlns="http://www.w3.org/2000/svg" width="24" height="24"><path style="stroke:none;fill-rule:nonzero;fill:#fff;fill-opacity:1" d="M3.54 13.984c0 1.008.147 1.883.44 2.625.297.743.77 1.434 1.426 2.075.653.64 1.516 1.3 2.59 1.984a92.222 92.222 0 0 0 3.973 2.352c.136.074.273.128.406.164.133.035.242.054.332.054.086 0 .2-.02.328-.054.133-.036.27-.09.41-.164.86-.489 1.645-.938 2.348-1.36a34.688 34.688 0 0 0 1.922-1.18l-1.348-1.355c-.41.273-.863.559-1.355.86-.492.3-1.035.632-1.621.992a2.372 2.372 0 0 1-.399.199.8.8 0 0 1-.285.066.802.802 0 0 1-.289-.066 2.49 2.49 0 0 1-.395-.2 168.708 168.708 0 0 1-3.21-1.984c-.86-.558-1.547-1.086-2.063-1.586-.516-.508-.887-1.062-1.113-1.656-.23-.594-.344-1.32-.344-2.172V8.051L3.539 6.309Zm17.394 3.575c.332-.5.57-1.036.718-1.61a8.127 8.127 0 0 0 .22-1.965V5.547c0-.578-.122-.996-.364-1.246s-.602-.473-1.07-.672c-.258-.11-.614-.25-1.07-.418-.458-.18-.962-.367-1.513-.563-.543-.207-1.09-.41-1.64-.609-.555-.195-1.059-.379-1.512-.539l-1.07-.375a3.822 3.822 0 0 0-.465-.11 1.837 1.837 0 0 0-.461-.054c-.156 0-.312.016-.465.055-.152.035-.305.074-.453.109-.336.11-.812.273-1.422.484-1.312.47-2.62.95-3.926 1.446l1.38 1.39c.382-.14.773-.285 1.179-.43.398-.148.8-.292 1.203-.43.395-.147.77-.284 1.125-.41.352-.132.664-.245.938-.34.14-.062.289-.097.441-.1.059 0 .125.007.2.023.07.015.152.039.241.078.336.117.727.258 1.168.43.442.16.903.332 1.391.515.492.18.98.36 1.465.543.492.176.96.344 1.402.508.442.16.832.3 1.18.418.148.05.242.125.285.219.055.097.078.238.078.422v7.687c0 .535-.043 1.016-.133 1.445-.086.418-.23.805-.43 1.157Zm.894 5.16a.809.809 0 0 0 .606.254.786.786 0 0 0 .597-.254c.168-.16.25-.36.25-.594a.826.826 0 0 0-.25-.605L2.438.938a.838.838 0 0 0-.606-.254.832.832 0 0 0-.61.253.793.793 0 0 0-.242.594c0 .246.083.446.243.61Zm0 0"/></svg>
